X: 58
T:Christmas Eve
M:C|
L:1/8
R:reel
K:G
GE|DB,DE G2 GA|B2 dB ABGA|BAGE DB,DE|G2 BG ABGE|DB,DE G2 GA|B2 dB ABGA|B
AGE D2 BG|ABGE G2 :|: GA|BABd edeg |abge g2 eg|a2 ae gage|dBgB BAGA|BABd
 (e2 e)g|abge g2 eg |a2 ge d2 BG|ABGE G2 :|:dc|BG (3GFG DGBd|egfg egdc|B
G (3GFG DGBd|eA (3cBA eA (3cBA|BG (3GFG DGBd|egfg egdg|bgaf gedc|BAGF G2
 :|
